X: 1480
T: Nihani Ol
C: Dellalzâde İsmail Efendi
O: Turkey
F: http://compmusic.upf.edu/node/140
N: karcigar--nakis--yuruksemai--nihani_ol--dellalzade_haci_ismail_efendi
N: makam= karcigar
N: form= nakis
N: usul= yuruksemai = 6/8
M: 6/8
L: 1/16
K: C _2/4B _3/4e ^3/4f 
Q: 1/4=84
%%MIDI tuningsystem comma53
c4d2_7/8e2 ^f4e2d2 d4a4  | a2g2g2^f2 f2_7/8e2e2d2 d8  | \
w:   |   | 
c4d8c4 d6c2  | 
w:   | 
^f4_7/8e2d2 d2c2_1/4B2d2 c6B2  | c2_1/4B2A6G2B2c2 d8  | \
w:   |   | 
d2_7/8e2^f2g2 a2_b2a2g2 f2e2e2d2  | 
w:   | 
^c2d2_7/8e2d2 d12z4  | d4g8^f4 _7/8e4d4  | \
w:   |   | 
_7/8e4^f4 g4f2a2 g8  | c4d8c4 d6c2  | 
w:   |   | 
^f4_7/8e2d2 d2c2_1/4B2d2 c6B2  | _1/4B2A2A6G2B2c2 d8  | \
w:   |   | 
d2_7/8e2^f2g2 a2_b2a2g2 f2e2e2d2  | 
w:   | 
c6_1/4B2 _7/8e4d2c2 c2B2B2A2  | A12z4 z4z4  | \
w:   |   | 
G4c4 c4c4 =e4^d4  | =e4=f4 g4^9/8f2a2 g8  | 
w:   |   | 
=e4g2=f2 f2e2e2^d2 d2e2f2e2  | =e6a2 g2=f2e2d2 c2=B2A2G2  | 
w:   |   | 
G4c4 c8 =e4^d4  | =e4=f4 g4^9/8f2a2 g8  | \
w:   |   | 
=e4g2=f2 f2e2e2^d2 d2e2f2e2  | 
w:   | 
=e6a2 g2=f2e2d2 c6z2  | c'8 c'4c'2_b2 babc'b2a2  | \
w:   |   | 
a2g2g=fga g2f2f2=e2 e8  | 
w:   | 
d4d2c2 =B2A2G4 B2c2d2c2  | c6g2 g2^f2_7/8e2f2 g8  | \
w:   |   | 
^f2g2a2_1/4b2 c'4c'2_b2 b2a2a2g2  | 
w:   | 
g2^f2f2_7/8e2 e2d2e2d2 d8  | c4d6_1/4B2g2=f2 f2=e2e2d2  | \
w:   |   | 
d2c2c2_1/4B2 B6A2 A8  | 
w:   | 
c2_1/4B2A6G2B2c2 d8  | d2_7/8e2^f2g2 a2_b2a2g2 f2e2e2d2  | \
w:   |   | 
^c2d2_7/8e2d2 d8 z4z4  | 
w:   | 
c4d2_7/8e2 ^f4e2d2 d4a4  | a2g2g2^f2 f2_7/8e2e2d2 d8  | \
w:   |   | 
c4d8c4 d6c2  | 
w:   | 
^f4_7/8e2d2 d2c2_1/4B2d2 c6B2  | c2_1/4B2A6G2B2c2 d8  | \
w:   |   | 
d2_7/8e2^f2g2 a2_b2a2g2 f2e2e2d2  | 
w:   | 
^c2d2_7/8e2d2 d12z4  | d4g8^f4 _7/8e4d4  | \
w:   |   | 
_7/8e4^f4 g4f2a2 g8  | c4d8c4 d6c2  | 
w:   |   | 
^f4_7/8e2d2 d2c2_1/4B2d2 c6B2  | _1/4B2A2A6G2B2c2 d8  | \
w:   |   | 
d2_7/8e2^f2g2 a2_b2a2g2 f2e2e2d2  | 
w:   | 
c6_1/4B2 _7/8e4d2c2 c2B2B2A2  | A12z4 z4z4  | |


